Icons/com_google_android_youtube.svg

<svg viewBox="0 0 48 48" xmlns:xlink="http://www.w3.org/1999/xlink">
 <defs>
  <linearGradient id="0">
   <stop stop-opacity="0"/>
   <stop offset="1"/>
  </linearGradient>
  <linearGradient xlink:href="#0" id="1" gradientUnits="userSpaceOnUse" gradientTransform="translate(4e-7,-48)" y1="47" x2="0" y2="1"/>
  <clipPath id="2">
   <g transform="translate(0,-1004.3622)">
    <rect rx="4" y="1005.36" x="1" height="46" width="46" fill="#1890d0"/>
   </g>
  </clipPath>
  <clipPath id="3">
   <g transform="translate(0,-1004.3622)">
    <rect rx="4" y="1005.36" x="1" height="46" width="46" fill="#1890d0"/>
   </g>
  </clipPath>
 </defs>
 <g>
  <g transform="translate(0,-1004.3622)">
   <path d="m 5,1006.3622 c -2.216,0 -4,1.784 -4,4 l 0,37.25 c 0,2.216 1.784,4 4,4 l 38,0 c 2.216,0 4,-1.784 4,-4 l 0,-37.25 c 0,-2.216 -1.784,-4 -4,-4 l -38,0 z m -4,41.5 0,0.5 c 0,2.216 1.784,4 4,4 l 38,0 c 2.216,0 4,-1.784 4,-4 l 0,-0.5 c 0,2.216 -1.784,4 -4,4 l -38,0 c -2.216,0 -4,-1.784 -4,-4 z" opacity="0.02"/>
   <path d="m 1,1047.6122 0,0.25 c 0,2.216 1.784,4 4,4 l 38,0 c 2.216,0 4,-1.784 4,-4 l 0,-0.25 c 0,2.216 -1.784,4 -4,4 l -38,0 c -2.216,0 -4,-1.784 -4,-4 z" opacity="0.05"/>
   <rect width="46" height="46" x="1" y="1005.61" rx="4" opacity="0.1"/>
  </g>
 </g>
 <g>
  <g transform="translate(0,-1004.3622)">
   <rect rx="4" y="1005.36" x="1" height="46" width="46" fill="#e33a31"/>
  </g>
 </g>
 <g>
  <rect transform="scale(1,-1)" width="46" height="46" x="1" y="-46.998" rx="4" opacity="0.1" fill="url(#1)"/>
 </g>
 <g>
  <g clip-path="url(#2)">
   <g opacity="0.1">
    <g>
     <path d="M 24.171875 15 C 21.132812 15 16.648438 15.183594 15.304688 15.226562 C 13.84375 15.355469 13.304688 15.429688 12.507812 16.101562 C 11.289062 17.167969 11 19.261719 11 22.46875 L 11 25.519531 C 11 29.175781 11.492188 31.035156 12.304688 31.714844 C 13.242188 32.507812 13.863281 32.570312 14.484375 32.664062 C 14.726562 32.699219 16.445312 33 24.058594 33 C 28.804688 33 32.882812 32.777344 33.304688 32.726562 C 33.984375 32.640625 34.957031 32.519531 35.695312 31.714844 C 36.785156 30.496094 37 28.472656 37 25.539062 L 37 21.988281 C 37 20.089844 36.894531 17.410156 35.695312 16.285156 C 34.785156 15.527344 34.453125 15.316406 32.574219 15.222656 C 32.042969 15.199219 27.410156 15 24.171875 15 Z M 21 20 L 28 24 L 21 28 Z M 21 20 "/>
    </g>
   </g>
  </g>
 </g>
 <g>
  <g clip-path="url(#3)">
   <g transform="translate(0,-1)">
    <g>
     <path d="M 24.171875 15 C 21.132812 15 16.648438 15.183594 15.304688 15.226562 C 13.84375 15.355469 13.304688 15.429688 12.507812 16.101562 C 11.289062 17.167969 11 19.261719 11 22.46875 L 11 25.519531 C 11 29.175781 11.492188 31.035156 12.304688 31.714844 C 13.242188 32.507812 13.863281 32.570312 14.484375 32.664062 C 14.726562 32.699219 16.445312 33 24.058594 33 C 28.804688 33 32.882812 32.777344 33.304688 32.726562 C 33.984375 32.640625 34.957031 32.519531 35.695312 31.714844 C 36.785156 30.496094 37 28.472656 37 25.539062 L 37 21.988281 C 37 20.089844 36.894531 17.410156 35.695312 16.285156 C 34.785156 15.527344 34.453125 15.316406 32.574219 15.222656 C 32.042969 15.199219 27.410156 15 24.171875 15 Z M 21 20 L 28 24 L 21 28 Z M 21 20 " fill="#f9f9f9"/>
    </g>
   </g>
  </g>
 </g>
 <g>
  <g transform="translate(0,-1004.3622)">
   <path d="m 1,1043.3622 0,4 c 0,2.216 1.784,4 4,4 l 38,0 c 2.216,0 4,-1.784 4,-4 l 0,-4 c 0,2.216 -1.784,4 -4,4 l -38,0 c -2.216,0 -4,-1.784 -4,-4 z" opacity="0.1"/>
  </g>
 </g>
</svg>

<svg viewBox="0 0 48 48"><defs><linearGradient id="linearGradient3764" x1="1" x2="47" gradientUnits="userSpaceOnUse" gradientTransform="translate(-48.000001,0.00221467)"><stop stop-color="#e1281f" stop-opacity="1"/><stop offset="1" stop-color="#e33a31" stop-opacity="1"/></linearGradient><clipPath id="clipPath-342122954"><g transform="translate(0,-1004.3622)"><rect rx="4" y="1005.36" x="1" height="46" width="46" fill="#1890d0"/></g></clipPath><clipPath id="clipPath-354924349"><g transform="translate(0,-1004.3622)"><rect rx="4" y="1005.36" x="1" height="46" width="46" fill="#1890d0"/></g></clipPath></defs><g><path d="m 1 43 l 0 0.25 c 0 2.216 1.784 4 4 4 l 38 0 c 2.216 0 4 -1.784 4 -4 l 0 -0.25 c 0 2.216 -1.784 4 -4 4 l -38 0 c -2.216 0 -4 -1.784 -4 -4 z m 0 0.5 l 0 0.5 c 0 2.216 1.784 4 4 4 l 38 0 c 2.216 0 4 -1.784 4 -4 l 0 -0.5 c 0 2.216 -1.784 4 -4 4 l -38 0 c -2.216 0 -4 -1.784 -4 -4 z" opacity="0.02"/><path d="m 1 43.25 l 0 0.25 c 0 2.216 1.784 4 4 4 l 38 0 c 2.216 0 4 -1.784 4 -4 l 0 -0.25 c 0 2.216 -1.784 4 -4 4 l -38 0 c -2.216 0 -4 -1.784 -4 -4 z" opacity="0.05"/><path d="m 1 43 l 0 0.25 c 0 2.216 1.784 4 4 4 l 38 0 c 2.216 0 4 -1.784 4 -4 l 0 -0.25 c 0 2.216 -1.784 4 -4 4 l -38 0 c -2.216 0 -4 -1.784 -4 -4 z" opacity="0.1"/></g><g><rect width="46" height="46" x="-47" y="1" rx="4" transform="matrix(0,-1,1,0,0,0)" fill="url(#linearGradient3764)" fill-opacity="1"/></g><g><g clip-path="url(#clipPath-342122954)"><g opacity="0.1"><!-- color: #e33a31 --><g><path d="m 24.17 15 c -3.039 0 -7.523 0.184 -8.867 0.227 c -1.461 0.129 -2 0.203 -2.797 0.875 c -1.219 1.066 -1.508 3.16 -1.508 6.367 l 0 3.051 c 0 3.656 0.492 5.516 1.305 6.195 c 0.938 0.793 1.559 0.855 2.18 0.949 c 0.242 0.035 1.961 0.336 9.574 0.336 c 4.746 0 8.824 -0.223 9.246 -0.273 c 0.68 -0.086 1.652 -0.207 2.391 -1.012 c 1.09 -1.219 1.305 -3.242 1.305 -6.176 l 0 -3.551 c 0 -1.898 -0.105 -4.578 -1.305 -5.703 c -0.91 -0.758 -1.242 -0.969 -3.121 -1.063 c -0.531 -0.023 -5.164 -0.223 -8.402 -0.223 m -3.172 5 l 7 4 l -7 4 m 0 -8" fill="#000"/></g></g></g></g><g><g clip-path="url(#clipPath-354924349)"><g transform="translate(0,-1)"><!-- color: #e33a31 --><g><path d="m 24.17 15 c -3.039 0 -7.523 0.184 -8.867 0.227 c -1.461 0.129 -2 0.203 -2.797 0.875 c -1.219 1.066 -1.508 3.16 -1.508 6.367 l 0 3.051 c 0 3.656 0.492 5.516 1.305 6.195 c 0.938 0.793 1.559 0.855 2.18 0.949 c 0.242 0.035 1.961 0.336 9.574 0.336 c 4.746 0 8.824 -0.223 9.246 -0.273 c 0.68 -0.086 1.652 -0.207 2.391 -1.012 c 1.09 -1.219 1.305 -3.242 1.305 -6.176 l 0 -3.551 c 0 -1.898 -0.105 -4.578 -1.305 -5.703 c -0.91 -0.758 -1.242 -0.969 -3.121 -1.063 c -0.531 -0.023 -5.164 -0.223 -8.402 -0.223 m -3.172 5 l 7 4 l -7 4 m 0 -8" fill="#f9f9f9"/></g></g></g></g><g><g transform="translate(0,-1004.3622)"><path d="m 1 1043.36 0 4 c 0 2.216 1.784 4 4 4 l 38 0 c 2.216 0 4 -1.784 4 -4 l 0 -4 c 0 2.216 -1.784 4 -4 4 l -38 0 c -2.216 0 -4 -1.784 -4 -4 z" opacity="0.1"/></g></g></svg>
